img/logo-sng.svg

<svg viewBox="0 0 37.48 37.48" xmlns="http://www.w3.org/2000/svg"><path d="m20 20h14.9v6.22h-12.32v2.58h12.34v6.2h-14.92zm0-15.63 13.1 13.08h-13.1zm-17.43-1.8h14.9v14.88h-14.9zm19.21 0h13.07v13.08zm-21.78-2.57v20h17.47v14.9h-14.9v-12.32h-2.57v14.9h37.48v-37.48z" fill="#fff"/></svg>

<svg xmlns="http://www.w3.org/2000/svg" viewBox="0 0 37.48 37.48"><defs><style>.cls-1{fill:#fff;}</style></defs><title>top-logo</title><g id="Layer_2" data-name="Layer 2"><g id="Layer_1-2" data-name="Layer 1"><path class="cls-1" d="M20,20h14.9v6.22H22.58V28.8H34.92V35H20ZM20,4.37,33.1,17.45H20V4.37ZM2.57,2.57h14.9V17.45H2.57Zm19.21,0H34.85V15.65ZM0,0V20H17.47v14.9H2.57V22.58H0v14.9H37.48V0Z"/></g></g></svg>
